assets/Left-facing fist/Medium-Dark/Flat/left-facing_fist_flat_medium-dark.svg

<svg width="32" height="32" viewBox="0 0 32 32" fill="none" xmlns="http://www.w3.org/2000/svg">
<path d="M17 14H6V23.8354C4.25293 23.3003 2.85927 22.2819 2.25 21.6875V22.0339C2.95939 24.3284 5.09771 25.99 7.62 25.99H10.1498C10.2539 25.6149 10.3913 25.2997 10.5913 25H17V14Z" fill="#764C49"/>
<path d="M2 12.63V20.37C2 20.9531 2.08859 21.5152 2.25299 22.0435C2.25199 22.0403 2.25099 22.0371 2.25 22.0339V21.6875C3.10417 22.5208 5.5 24.1875 8.25 24.1875C10.8767 24.1875 12.8381 22.7668 13.5897 21.9132C13.0309 20.7188 12.4352 20.0931 11.49 19.8125C10.9173 19.6425 10.2891 19.581 9.71142 19.5244C9.33338 19.4873 8.97694 19.4524 8.67188 19.3906C7.90062 19.2344 8.00999 17.99 8.00999 17.99C8.00999 17.9354 8.01448 17.8819 8.02312 17.8298C7.94242 16.9533 7.2703 15.705 6.4048 14.7854C6.24478 14.6154 6.36099 14.3234 6.59302 14.3495C8.38049 14.5511 9.38801 15.5599 10.137 17.01H15.18C15.65 17.01 16.01 17.42 15.95 17.89C15.7967 18.9632 14.3982 20.846 13.6833 21.8022L13.6875 21.7969C13.6875 21.7969 13.2748 22.6347 12.1094 23.5312C10.9045 24.4581 10.4174 25.026 10.1498 25.99H10.17C9.8 27.05 10.03 28.27 10.88 29.11C12.05 30.28 13.95 30.28 15.12 29.11L17.6 26.63C18.01 26.22 18.57 25.99 19.15 25.99C22.55 25.99 25.38 23.51 25.91 20.25C25.93 20.1 26.06 19.99 26.22 19.99H28.0312C29.1562 19.99 30 19.5625 30 18.0625V10.9062C30 9 29.06 8 27.0625 8H6.63C4.07 8 2 10.07 2 12.63Z" fill="#966661"/>
</svg>

<svg xmlns="http://www.w3.org/2000/svg" width="32" height="32" fill="none"><path fill="#764C49" d="M17 14H6v9.835c-1.747-.535-3.14-1.553-3.75-2.148v.347a5.621 5.621 0 0 0 5.37 3.956h2.53c.104-.375.241-.69.441-.99H17V14Z"/><path fill="#966661" d="M2 12.63v7.74c0 .583.089 1.145.253 1.674l-.003-.01v-.346c.854.833 3.25 2.5 6 2.5 2.627 0 4.588-1.421 5.34-2.275-.56-1.194-1.155-1.82-2.1-2.1-.573-.17-1.2-.232-1.779-.289-.378-.037-.734-.072-1.04-.133-.77-.157-.661-1.401-.661-1.401 0-.055.004-.108.013-.16-.08-.877-.753-2.125-1.618-3.045-.16-.17-.044-.462.188-.435 1.787.201 2.795 1.21 3.544 2.66h5.043c.47 0 .83.41.77.88-.153 1.073-1.552 2.956-2.267 3.912l.005-.005s-.413.838-1.579 1.734c-1.204.927-1.692 1.495-1.96 2.459h.021c-.37 1.06-.14 2.28.71 3.12a3 3 0 0 0 4.24 0l2.48-2.48c.41-.41.97-.64 1.55-.64 3.4 0 6.23-2.48 6.76-5.74.02-.15.15-.26.31-.26h1.811c1.125 0 1.969-.427 1.969-1.927v-7.157C30 9 29.06 8 27.062 8H6.63C4.07 8 2 10.07 2 12.63Z"/></svg>
